X:93
T:Duncan McQueens,Strathspay. JMP.093
M:2/4
L:1/8
Q:1/2=80
C:â€™Donald McDonaldâ€™
S:John Miller MS. Perth, 1799.(for the fife)
R:.Strathspey
O:Scotland
A:Perth
N:â€™Donald McDonaldâ€™ written in side marginâ€¦.
H:1799
Z:vmp.Cherri Graebe
K:G major
AG | EAAA | cAAe | edcA | G2 (GA/G/) |\
EAAA | cAAe | ecde | A2 A :|!
|:c | e>cAe | A/A/A ec | d>edc | BGGc |\
e>cAe | A/A/A e>c | (de/f/) ec | A2A :|!
|:Aaag | a2a2 | cgg>d | g2g2 |\
Aaa>g | a2a2 | ged>e | A2A2 |\
a2 ba |!
g2 ag | e2 ge | c>d eg/e/ |\
decG | G>B A/A/A | cdec | eag>e|â€no end barlineâ€ d>e A |]

